overrides/.icons/option/feat-boon.svg

<?xml version="1.0" encoding="UTF-8" standalone="no"?>
<svg
   viewBox="0 0 24 24"
   version="1.1"
   id="svg1"
   sodipodi:docname="feat-boon.svg"
   inkscape:version="1.3.2 (091e20e, 2023-11-25, custom)"
   xml:space="preserve"
   xmlns:inkscape="http://www.inkscape.org/namespaces/inkscape"
   xmlns:sodipodi="http://sodipodi.sourceforge.net/DTD/sodipodi-0.dtd"
   xmlns="http://www.w3.org/2000/svg"
   xmlns:svg="http://www.w3.org/2000/svg"><defs
     id="defs1" /><sodipodi:namedview
     id="namedview1"
     pagecolor="#ffffff"
     bordercolor="#111111"
     borderopacity="1"
     inkscape:showpageshadow="0"
     inkscape:pageopacity="0"
     inkscape:pagecheckerboard="1"
     inkscape:deskcolor="#d1d1d1"
     inkscape:zoom="15.291184"
     inkscape:cx="6.9647975"
     inkscape:cy="10.038464"
     inkscape:window-width="1366"
     inkscape:window-height="697"
     inkscape:window-x="-8"
     inkscape:window-y="-8"
     inkscape:window-maximized="1"
     inkscape:current-layer="svg1" /><path
     id="path1"
     d="M 7 2 C 5.9000044 2 5 2.9000044 5 4 L 5 20 C 5 21.099996 5.9000044 22 7 22 L 17 22 C 18.099996 22 19 21.099996 19 20 L 19 4 C 19 2.9000044 18.099996 2 17 2 L 7 2 z M 12 5.75 A 1.25 1.25 0 0 1 13.25 7 C 13.25 7.4187497 13.042968 7.786719 12.730469 8.0117188 L 13.0625 10.34375 L 14.792969 8.4316406 A 1.25 1.25 0 0 1 14.5 7.625 A 1.25 1.25 0 0 1 15.75 6.375 A 1.25 1.25 0 0 1 17 7.625 C 17 8.1312495 16.688281 8.5617189 16.269531 8.7617188 L 15.125 12.71875 L 15.125 15.75 L 8.875 15.75 L 8.875 12.71875 L 7.7304688 8.7617188 C 7.3117192 8.5617189 7 8.1312495 7 7.625 A 1.25 1.25 0 0 1 8.25 6.375 A 1.25 1.25 0 0 1 9.5 7.625 C 9.5 7.9374997 9.3874998 8.2187502 9.1875 8.4375 L 10.9375 10.34375 L 11.269531 8.0117188 C 10.957032 7.786719 10.75 7.4187497 10.75 7 A 1.25 1.25 0 0 1 12 5.75 z M 7.625 17 L 16.375 17 L 16.375 18.25 L 7.625 18.25 L 7.625 17 z " /></svg>

<?xml version="1.0" encoding="UTF-8"?>
<svg id="svg1" version="1.1" viewBox="0 0 24 24" xml:space="preserve" xmlns="http://www.w3.org/2000/svg"><path id="path1" d="m7 2c-1.1 0-2 0.9-2 2v16c0 1.1 0.9 2 2 2h10c1.1 0 2-0.9 2-2v-16c0-1.1-0.9-2-2-2h-10zm5 3.75a1.25 1.25 0 0 1 1.25 1.25c0 0.41875-0.20703 0.78672-0.51953 1.0117l0.33203 2.332 1.7305-1.9121a1.25 1.25 0 0 1-0.29297-0.80664 1.25 1.25 0 0 1 1.25-1.25 1.25 1.25 0 0 1 1.25 1.25c0 0.50625-0.31172 0.93672-0.73047 1.1367l-1.1445 3.957v3.0312h-6.25v-3.0312l-1.1445-3.957c-0.41875-0.2-0.73047-0.63047-0.73047-1.1367a1.25 1.25 0 0 1 1.25-1.25 1.25 1.25 0 0 1 1.25 1.25c0 0.3125-0.1125 0.59375-0.3125 0.8125l1.75 1.9062 0.33203-2.332c-0.3125-0.225-0.51953-0.59297-0.51953-1.0117a1.25 1.25 0 0 1 1.25-1.25zm-4.375 11.25h8.75v1.25h-8.75v-1.25z"/></svg>
